SF_Symbols/sparkle.svg

<?xml version="1.0" encoding="UTF-8"?>
<svg xmlns="http://www.w3.org/2000/svg" xmlns:xlink="http://www.w3.org/1999/xlink" width="24" height="24" viewBox="0 0 24 24" version="1.1">
<g id="surface1">
<path style=" stroke:none;fill-rule:nonzero;fill:rgb(100%,100%,100%);fill-opacity:1;" d="M 12 23.941406 C 12.21875 23.941406 12.40625 23.867188 12.5625 23.71875 C 12.71875 23.578125 12.816406 23.390625 12.855469 23.15625 C 13.058594 21.59375 13.285156 20.28125 13.535156 19.21875 C 13.785156 18.148438 14.113281 17.273438 14.519531 16.59375 C 14.933594 15.90625 15.476562 15.359375 16.148438 14.953125 C 16.828125 14.546875 17.691406 14.230469 18.738281 14.003906 C 19.785156 13.769531 21.070312 13.566406 22.59375 13.394531 C 22.828125 13.371094 23.023438 13.28125 23.179688 13.125 C 23.335938 12.960938 23.414062 12.765625 23.414062 12.539062 C 23.414062 12.3125 23.335938 12.121094 23.179688 11.964844 C 23.023438 11.800781 22.828125 11.703125 22.59375 11.671875 C 21.070312 11.507812 19.785156 11.3125 18.738281 11.085938 C 17.691406 10.851562 16.828125 10.53125 16.148438 10.125 C 15.476562 9.71875 14.933594 9.175781 14.519531 8.496094 C 14.113281 7.808594 13.785156 6.929688 13.535156 5.859375 C 13.285156 4.789062 13.058594 3.472656 12.855469 1.910156 C 12.816406 1.675781 12.71875 1.488281 12.5625 1.347656 C 12.40625 1.207031 12.21875 1.136719 12 1.136719 C 11.78125 1.136719 11.59375 1.207031 11.4375 1.347656 C 11.28125 1.488281 11.183594 1.675781 11.144531 1.910156 C 10.941406 3.472656 10.714844 4.789062 10.464844 5.859375 C 10.214844 6.929688 9.882812 7.808594 9.46875 8.496094 C 9.054688 9.175781 8.507812 9.71875 7.828125 10.125 C 7.15625 10.53125 6.296875 10.851562 5.25 11.085938 C 4.210938 11.3125 2.929688 11.507812 1.40625 11.671875 C 1.164062 11.703125 0.964844 11.800781 0.808594 11.964844 C 0.660156 12.121094 0.585938 12.3125 0.585938 12.539062 C 0.585938 12.765625 0.660156 12.960938 0.808594 13.125 C 0.964844 13.28125 1.164062 13.371094 1.40625 13.394531 C 2.679688 13.566406 3.78125 13.75 4.710938 13.945312 C 5.640625 14.132812 6.433594 14.367188 7.089844 14.648438 C 7.746094 14.929688 8.292969 15.292969 8.730469 15.738281 C 9.175781 16.175781 9.542969 16.726562 9.832031 17.390625 C 10.121094 18.046875 10.367188 18.847656 10.570312 19.792969 C 10.773438 20.738281 10.964844 21.859375 11.144531 23.15625 C 11.183594 23.390625 11.28125 23.578125 11.4375 23.71875 C 11.59375 23.867188 11.78125 23.941406 12 23.941406 Z M 12 23.941406 "/>
</g>
</svg>

<svg xmlns="http://www.w3.org/2000/svg" width="24" height="24"><path style="stroke:none;fill-rule:nonzero;fill:#fff;fill-opacity:1" d="M12 23.941a.788.788 0 0 0 .563-.222.952.952 0 0 0 .292-.563c.204-1.562.43-2.875.68-3.937.25-1.07.578-1.946.985-2.625a4.745 4.745 0 0 1 1.628-1.64c.68-.407 1.543-.724 2.59-.95 1.047-.234 2.332-.438 3.856-.61a.94.94 0 0 0 .586-.269.82.82 0 0 0 .234-.586.793.793 0 0 0-.234-.574.97.97 0 0 0-.586-.293c-1.524-.164-2.809-.36-3.856-.586-1.047-.234-1.91-.555-2.59-.961a4.78 4.78 0 0 1-1.628-1.629c-.407-.687-.735-1.566-.985-2.637-.25-1.07-.476-2.386-.68-3.949a.952.952 0 0 0-.293-.562.807.807 0 0 0-.562-.211.807.807 0 0 0-.563.21.952.952 0 0 0-.292.563c-.204 1.563-.43 2.88-.68 3.95-.25 1.07-.582 1.949-.996 2.636a4.746 4.746 0 0 1-1.64 1.629c-.673.406-1.532.727-2.579.96-1.04.227-2.32.423-3.844.587a.979.979 0 0 0-.597.293.799.799 0 0 0-.223.574c0 .227.074.422.223.586a.93.93 0 0 0 .597.27c1.274.171 2.375.355 3.305.55.93.188 1.723.422 2.379.703.656.282 1.203.645 1.64 1.09.446.438.813.989 1.102 1.653.29.656.535 1.457.738 2.402.203.945.395 2.066.575 3.363.039.235.136.422.293.563a.794.794 0 0 0 .562.222Zm0 0"/></svg>
